img/icons/lightning-logo.svg

<svg width="19" height="19" xmlns="http://www.w3.org/2000/svg" fill="none">

 <g>
  <title>Layer 1</title>
  <path id="svg_1" fill="#1A1930" d="m14.385,6.52502c-0.0652,-0.14987 -0.171,-0.27848 -0.3056,-0.37127c-0.1345,-0.09279 -0.2923,-0.14604 -0.4556,-0.15373l-4.0075,0l1.1112,-4.1475c0.0354,-0.12978 0.0404,-0.26598 0.0146,-0.398c-0.0258,-0.13203 -0.0817,-0.25633 -0.1633,-0.36325c-0.0815,-0.10588 -0.1862,-0.19169 -0.306,-0.25085c-0.1198,-0.05915 -0.2516,-0.09007 -0.3853,-0.0904l-6.12496,0c-0.19754,-0.00676 -0.39155,0.05355 -0.55044,0.17113c-0.15888,0.11758 -0.27328,0.28548 -0.32456,0.47637l-2.345,8.74998c-0.03539,0.1298 -0.04038,0.266 -0.01458,0.398c0.0258,0.1321 0.08169,0.2564 0.16333,0.3633c0.08242,0.107 0.1885,0.1936 0.30995,0.2528c0.12144,0.0592 0.25495,0.0894 0.39005,0.0884l3.38625,0l-1.58375,5.8975c-0.05189,0.1902 -0.03804,0.3923 0.03929,0.5736c0.07734,0.1814 0.21363,0.3312 0.3868,0.4254c0.17317,0.0942 0.37307,0.1272 0.5673,0.0935c0.19424,-0.0336 0.37143,-0.1318 0.50286,-0.2787l9.53746,-10.50003c0.1136,-0.12435 0.1889,-0.27883 0.2168,-0.4449c0.028,-0.16607 0.0074,-0.33668 -0.0593,-0.49135zm-8.56621,7.59498l0.93625,-3.5c0.0354,-0.1298 0.04039,-0.266 0.01459,-0.398c-0.0258,-0.132 -0.08169,-0.2563 -0.16334,-0.3632c-0.08151,-0.1059 -0.18619,-0.1917 -0.30601,-0.2509c-0.11983,-0.0591 -0.25161,-0.0901 -0.38524,-0.0904l-3.36,0l1.8725,-7.01748l4.31376,0l-1.1113,4.1475c-0.0356,0.13218 -0.0398,0.27088 -0.0121,0.40496c0.0277,0.13407 0.0864,0.25978 0.1715,0.36702c0.0851,0.10723 0.1942,0.193 0.3185,0.25041c0.1243,0.0574 0.2603,0.08484 0.3971,0.08011l3.1238,0l-5.81001,6.36998z"/>
 </g>
</svg>

<svg width="15" height="19" viewBox="0 0 15 19" fill="none" xmlns="http://www.w3.org/2000/svg">
<path d="M14.385 6.52502C14.3198 6.37515 14.214 6.24654 14.0794 6.15375C13.9449 6.06096 13.7871 6.00771 13.6238 6.00002H9.6163L10.7275 1.85252C10.7629 1.72274 10.7679 1.58654 10.7421 1.45452C10.7163 1.32249 10.6604 1.19819 10.5788 1.09127C10.4973 0.985394 10.3926 0.899584 10.2728 0.840424C10.153 0.781274 10.0212 0.750354 9.8875 0.750024H3.76254C3.565 0.743264 3.37099 0.803574 3.2121 0.921154C3.05322 1.03873 2.93882 1.20663 2.88754 1.39752L0.542542 10.1475C0.507152 10.2773 0.502162 10.4135 0.527962 10.5455C0.553762 10.6776 0.609651 10.8019 0.691291 10.9088C0.773711 11.0158 0.879791 11.1024 1.00124 11.1616C1.12268 11.2208 1.25619 11.251 1.39129 11.25H4.77754L3.19379 17.1475C3.1419 17.3377 3.15575 17.5398 3.23308 17.7211C3.31042 17.9025 3.44671 18.0523 3.61988 18.1465C3.79305 18.2407 3.99295 18.2737 4.18718 18.24C4.38142 18.2064 4.55861 18.1082 4.69004 17.9613L14.2275 7.46127C14.3411 7.33692 14.4164 7.18244 14.4443 7.01637C14.4723 6.8503 14.4517 6.67969 14.385 6.52502ZM5.81879 14.12L6.75504 10.62C6.79044 10.4902 6.79543 10.354 6.76963 10.222C6.74383 10.09 6.68794 9.9657 6.60629 9.8588C6.52478 9.7529 6.4201 9.6671 6.30028 9.6079C6.18045 9.5488 6.04867 9.5178 5.91504 9.5175H2.55504L4.42754 2.50002H8.7413L7.63 6.64752C7.5944 6.7797 7.5902 6.9184 7.6179 7.05248C7.6456 7.18655 7.7043 7.31226 7.7894 7.4195C7.8745 7.52673 7.9836 7.6125 8.1079 7.66991C8.2322 7.72731 8.3682 7.75475 8.505 7.75002H11.6288L5.81879 14.12Z" fill="#1A1930"/>
</svg>
